imgs/AustriaFlag.svg

<svg width="25" height="18" viewBox="0 0 25 18" fill="none" xmlns="http://www.w3.org/2000/svg">
<path d="M23.5068 17.5H0.506836V0.5H23.5068V17.5Z" fill="white" stroke="#F5F2E9"/>
<path fill-rule="evenodd" clip-rule="evenodd" d="M23 17H1V11.9987H23V17ZM23 6.00125H1V1H23V6.00125Z" fill="#DF0000"/>
</svg>

<svg width="25" height="18" fill="none" xmlns="http://www.w3.org/2000/svg"><path d="M23.507 17.5h-23V.5h23v17z" fill="#fff" stroke="#F5F2E9"/><path fill-rule="evenodd" clip-rule="evenodd" d="M23 17H1v-5.001h22V17zm0-10.999H1V1h22v5.001z" fill="#DF0000"/></svg>
